X:1
T:Title
%%score { ( 1 4 ) | ( 2 3 ) }
L:1/8
M:3/4
K:Ab
V:1 treble nm="Grand Piano"
V:4 treble 
V:2 bass 
V:3 bass 
V:1
 z2 z2[Q:1/4=92] A2 | A3 A c>A | E4 A2 | A3 A c>A | E4 E2 | A4 [FB]2 |[M:2/4] [=Ec]4 |[M:1/4] G2 | %8
[M:3/4] A>B c2 [A=d]2 | [Ge]6 | e3 c BA | z2 A4 | e3 c BA | z2 A4 | [FA]2 [Ff]2 [Ec]2 | %15
 [Dd]3 [Fc] [FB][FA] | A>E c2 B2 |[M:2/4] [CA]4 |] %18
V:2
 z2 z2 A,2 | A,3 A, C>A, | E,4[K:treble] [A,CE]2 | [A,CE]3 [A,CE] [A,EA]>[A,CE] | %4
 [G,B,D]4 [E,G,D]2 | [F,A,C]4 [D,F,]2 |[M:2/4] [C,G,]4 |[M:1/4][K:treble] [B,C=E]2 | %8
[M:3/4] F4[K:bass] z2 | [E,B,]6 | [A,CA]3 [A,EA] [A,E]-[A,CE] | z2 [CE]4 | [A,CA]4[K:treble] z2 | %13
 z2 E2 z2 | [D,D]2 [D,A,]2 [F,=A,]2 | [B,,B,]3 [C,=A,] [D,B,][=D,_C] | [CE]2 z2 z2 | %17
[M:2/4] [A,,E,A,]4 |] %18
V:3
 x6 | x6 | x4[K:treble] x2 | x6 | x6 | x6 |[M:2/4] x4 |[M:1/4][K:treble] x2 | %8
[M:3/4] [A,C]2[K:bass] [F,A,]2 [=E,B,]2 | x6 | z2 z2 .D2 | [A,DF]>[A,D] A,2 z2 | %12
 A,,3- [A,,A,E][K:treble] [A,B,E][A,CE] | [A,DF]>[A,D] [A,C]4 | x6 | x6 | %16
 E,->[E,A,C] [E,E]2 [E,,E,G,D]2 |[M:2/4] x4 |] %18
V:4
 x6 | x6 | x6 | x6 | x6 | x6 |[M:2/4] x4 |[M:1/4] x2 |[M:3/4] x6 | x6 | x6 | A>F z2 E,2 | x6 | %13
 A>F z2 _G2 | x6 | x6 | x6 |[M:2/4] x4 |] %18

